!! 00000] TT[WS
!!!OTL: Tiqi na guafeng
!!!ARE: Asia, China, Shanxi Ningwu
!! Ethnic Group: Han
!! WII, 59 (3)
!!!SCT: J0485
!!!YEM: Copyright 1995, estate of Helmut Schaffrath.
**kern
*ICvox
*Ivox
*M2/4
*k[f#]
*G:
{8ee
16dd
16ee
8b
16a
16b
=1
2dd
=2
8ee
16dd
16ee
8b
16a
16b
=3
2e}
=4
{16g
16e
16g
16a
8b
16b
16dd
=5
2a
=6
8b
16b
16e
8g
16g
16e
=7
2d}
==
!!!AGN: Xiaodiao. Qingge, Sichun
!!!ONB: ESAC (Essen Associative Code) Database: CHINA
!!!AMT: simple duple
!!!AIN: vox
!!!EED: Helmut Schaffrath
!!!EEV: 1.0
*-
